components/img/newtab/topsites/pin-o.svg

<svg height="12" viewBox="0 0 12 12" width="12" xmlns="http://www.w3.org/2000/svg"><path d="m4.04590045 7.4223137-2.29878756-2.2971966c-.20075862-.20061967-.11682129-.54414581.15350127-.62822703 1.03489458-.32189396 2.13620733-.2566789 3.10681773.16193343l1.64348244-1.64152548c-.18929883-.64499902-.18870098-1.34129778.01669106-2.00237208.08393974-.27016821.42265803-.3545926.62222172-.15508666l3.84947729 3.84836338c.2007828.20072469.1166479.54435327-.153824.62825706-.6618263.20530682-1.35914861.20513766-2.00493732.01438352l-1.64048901 1.64037121c.41889418.97087509.4842542 2.07262809.16212236 3.10825885-.08400111.2700575-.42258957.3544272-.62213173.1550232l-2.3019791-2.30038596-3.18882813 3.18630236c-.14695712.1468408-.38439253.1460065-.53032685-.0018634s-.14510518-.38678.00185194-.5336207zm4.19006465-2.39086714c-.25657127-.14805266-.49684998-.33094433-.71370243-.54745441-.21910151-.2188717-.40388244-.46174618-.55307477-.7212589l-1.27095693 1.26944354c.24772984.16365503.48170043.35379494.69772066.56970294.21632935.21630295.40682364.45061495.57075805.69873112zm.76390635-.46937338c.00729382.00247367.01452686.0051793.02168773.00811685.34404943.1270813.71139259.18294986 1.07928192.16365602l-2.83574753-2.83492696c-.04040697.74958493.23247653 1.49700162.78550499 2.04945004.27585108.27541556.60025961.48136988.94927289.61370405zm-3.13252018 1.57516534c-.82970119-.82927018-1.97811642-1.2020371-3.10286073-1.0590412l4.16089109 4.15801137c.14363188-1.12298322-.22860878-2.26964986-1.05803036-3.09897017z" fill="#373843" fill-rule="evenodd"/></svg>

<?xml version="1.0" encoding="UTF-8"?>
<svg width="12px" height="12px" viewBox="0 0 12 12" version="1.1" xmlns="http://www.w3.org/2000/svg" xmlns:xlink="http://www.w3.org/1999/xlink">
    <!-- Generator: Sketch 52.5 (67469) - http://www.bohemiancoding.com/sketch -->
    <title>minus</title>
    <desc>Created with Sketch.</desc>
    <defs>
        <path d="M4.04590045,7.4223137 L1.74711289,5.1251171 C1.54635427,4.92449743 1.6302916,4.58097129 1.90061416,4.49689007 C2.93550874,4.17499611 4.03682149,4.24021117 5.00743189,4.6588235 L6.65091433,3.01729802 C6.4616155,2.372299 6.46221335,1.67600024 6.66760539,1.01492594 C6.75154513,0.744757734 7.09026342,0.660333345 7.28982711,0.859839284 L11.1393044,4.70820266 C11.3400872,4.90892735 11.2559523,5.25255593 10.9854804,5.33645972 C10.3236541,5.54176654 9.62633179,5.54159738 8.98054308,5.35084324 L7.34005407,6.99121445 C7.75894825,7.96208954 7.82430827,9.06384254 7.50217643,10.0994733 C7.41817532,10.3695308 7.07958686,10.4539005 6.8800447,10.2544965 L4.5780656,7.95411054 L1.38923747,11.1404129 C1.24228035,11.2872537 1.00484494,11.2864194 0.858910618,11.1385495 C0.712976301,10.9906796 0.713805443,10.7517695 0.860762558,10.6049288 L4.04590045,7.4223137 Z M8.2359651,5.03144656 C7.97939383,4.8833939 7.73911512,4.70050223 7.52226267,4.48399215 C7.30316116,4.26512045 7.11838023,4.02224597 6.9691879,3.76273325 L5.69823097,5.03217679 C5.94596081,5.19583182 6.1799314,5.38597173 6.39595163,5.60187973 C6.61228098,5.81818268 6.80277527,6.05249468 6.96670968,6.30061085 L8.2359651,5.03144656 Z M8.99987145,4.56207318 C9.00716527,4.56454685 9.01439831,4.56725248 9.02155918,4.57019003 C9.36560861,4.69727133 9.73295177,4.75313989 10.1008411,4.73384605 L7.26509357,1.89891909 C7.2246866,2.64850402 7.4975701,3.39592071 8.05059856,3.94836913 C8.32644964,4.22378469 8.65085817,4.42973901 8.99987145,4.56207318 Z M5.86735127,6.13723852 C5.03765008,5.30796834 3.88923485,4.93520142 2.76449054,5.07819732 L6.92538163,9.23620869 C7.06901351,8.11322547 6.69677285,6.96655883 5.86735127,6.13723852 Z" id="path-1"></path>
    </defs>
    <g id="minus" stroke="none" stroke-width="1" fill="none" fill-rule="evenodd">
        <g id="misc/pin-o" stroke="#979797" stroke-width="0.75">
            <mask id="mask-2" fill="white">
                <use xlink:href="#path-1"></use>
            </mask>
            <use id="Mask" stroke="none" fill="#373843" fill-rule="evenodd" xlink:href="#path-1"></use>
        </g>
    </g>
</svg>
